src/assets/images/icons/userIcon.svg

<svg width="20" height="21" viewBox="0 0 20 21" fill="none" xmlns="http://www.w3.org/2000/svg">
<path fill-rule="evenodd" clip-rule="evenodd" d="M10 2.57056C7.69885 2.57056 5.83337 4.43604 5.83337 6.73722C5.83337 9.03841 7.69885 10.9039 10 10.9039C12.3012 10.9039 14.1667 9.03841 14.1667 6.73722C14.1667 4.43604 12.3012 2.57056 10 2.57056Z" fill="#5D6B8A"/>
<path fill-rule="evenodd" clip-rule="evenodd" d="M7.50001 11.7372C6.11439 11.7372 4.78187 12.3693 4.00097 13.3209C3.60464 13.8039 3.32602 14.4015 3.30176 15.0639C3.27699 15.7402 3.52114 16.4004 4.02466 16.9765C5.2518 18.3803 7.21107 19.2372 10 19.2372C12.789 19.2372 14.7482 18.3803 15.9754 16.9765C16.4789 16.4004 16.723 15.7402 16.6983 15.0639C16.674 14.4015 16.3954 13.8039 15.9991 13.3209C15.2182 12.3693 13.8856 11.7372 12.5 11.7372H7.50001Z" fill="#5D6B8A"/>
</svg>

<svg xmlns="http://www.w3.org/2000/svg" width="20" height="21" fill="none"><path fill="#5D6B8A" fill-rule="evenodd" d="M10 2.57a4.167 4.167 0 1 0 0 8.334 4.167 4.167 0 0 0 0-8.333ZM7.5 11.737c-1.386 0-2.718.632-3.499 1.584-.396.483-.675 1.08-.7 1.743-.024.676.22 1.336.724 1.913 1.227 1.403 3.186 2.26 5.975 2.26 2.789 0 4.748-.857 5.975-2.26.504-.577.748-1.237.723-1.913-.024-.662-.303-1.26-.699-1.743-.78-.952-2.113-1.584-3.499-1.584h-5Z" clip-rule="evenodd"/></svg>
